Adwaita++/actions/22/timeline-lift.svg

<svg fill="none" height="22" viewBox="0 0 22 22" width="22" xmlns="http://www.w3.org/2000/svg" xmlns:xlink="http://www.w3.org/1999/xlink">
  <defs>
    <clipPath id="clip0">
      <path d="m3 3h16v16h-16z"/>
    </clipPath>
  </defs>
  <g clip-path="url(#clip0)">
    <path d="m8.67851 9.82149 1.17851 1.17851-1.17851 1.1785 1.17851 1.1785 1.17848-1.1785 1.1786 1.1785 1.1785-1.1785-1.1785-1.1785 1.1785-1.17851-1.1785-1.17851-1.1786 1.17851-1.17848-1.17851z" fill="#e01b24"/>
    <g fill="#444">
      <path d="m3 9.1c0-.33137.26863-.6.6-.6h3.8c.33137 0 .6.26863.6.6v3.8c0 .3314-.26863.6-.6.6h-3.8c-.33137 0-.6-.2686-.6-.6z"/>
      <path d="m14 9.1c0-.33137.2686-.6.6-.6h3.8c.3314 0 .6.26863.6.6v3.8c0 .3314-.2686.6-.6.6h-3.8c-.3314 0-.6-.2686-.6-.6z"/>
    </g>
  </g>
</svg>

<svg xmlns="http://www.w3.org/2000/svg" fill="none" width="22" height="22" viewBox="0 0 22 22">
 <g clip-path="url(#clip0)">
  <path fill="#E01B24" d="M8.67851 9.82149L9.85702 11L8.67851 12.1785L9.85702 13.357L11.0355 12.1785L12.2141 13.357L13.3926 12.1785L12.2141 11L13.3926 9.82149L12.2141 8.64298L11.0355 9.82149L9.85702 8.64298L8.67851 9.82149Z"/>
  <path fill="#444" d="M3 9.1C3 8.76863 3.26863 8.5 3.6 8.5H7.4C7.73137 8.5 8 8.76863 8 9.1V12.9C8 13.2314 7.73137 13.5 7.4 13.5H3.6C3.26863 13.5 3 13.2314 3 12.9L3 9.1Z"/>
  <path fill="#444" d="M14 9.1C14 8.76863 14.2686 8.5 14.6 8.5H18.4C18.7314 8.5 19 8.76863 19 9.1V12.9C19 13.2314 18.7314 13.5 18.4 13.5H14.6C14.2686 13.5 14 13.2314 14 12.9V9.1Z"/>
 </g>
 <defs>
  <clipPath id="clip0">
   <rect fill="#fff" width="16" height="16" transform="translate(3 3)"/>
  </clipPath>
 </defs>
</svg>
